X: 11
T: Menuet
B:[[Notböcker/Melodier til gamle danske Almuedanse for Violin solo]]
O:Danmark
Z:Søren Bak Vestergaard
M: 3/4
L: 1/8
K: C
G2|c2 c2 ec|G2 FEDC|A2 ABcA|A4 G2|e2 e2 e2|\
d2 g2 (Bd)|dcBAG^F|G2 z2:| |:(3(GBd)|f2 f2 dB|c2 (uce) uG2|\
cBAGFE|E2 D2 c>c|c2 G2 e>e|e2 c2 eg|gfafdB|c2z2:|

